Sources/FrostedUI/Resources/Icons.xcassets/waveform20.imageset/waveform-20.svg

<svg width="20" height="20" viewBox="0 0 20 20" fill="none" xmlns="http://www.w3.org/2000/svg" data-fui-icon="true">
  <path
    d="M5.5 4.5C5.91421 4.5 6.25 4.83579 6.25 5.25V16.25C6.25 16.6642 5.91421 17 5.5 17C5.08579 17 4.75 16.6642 4.75 16.25V5.25C4.75 4.83579 5.08579 4.5 5.5 4.5ZM11.5 7C11.9142 7 12.25 7.33579 12.25 7.75V13.75C12.25 14.1642 11.9142 14.5 11.5 14.5C11.0858 14.5 10.75 14.1642 10.75 13.75V7.75C10.75 7.33579 11.0858 7 11.5 7ZM8.5 7.5C8.91421 7.5 9.25 7.83579 9.25 8.25V13.25C9.25 13.6642 8.91421 14 8.5 14C8.08579 14 7.75 13.6642 7.75 13.25V8.25C7.75 7.83579 8.08579 7.5 8.5 7.5ZM2.5 8C2.91421 8 3.25 8.33579 3.25 8.75V12.75C3.25 13.1642 2.91421 13.5 2.5 13.5C2.08579 13.5 1.75 13.1642 1.75 12.75V8.75C1.75 8.33579 2.08579 8 2.5 8ZM14.5 8C14.9142 8 15.25 8.33579 15.25 8.75V12.75C15.25 13.1642 14.9142 13.5 14.5 13.5C14.0858 13.5 13.75 13.1642 13.75 12.75V8.75C13.75 8.33579 14.0858 8 14.5 8ZM17.5 9.5C17.9142 9.5 18.25 9.83579 18.25 10.25V11.25C18.25 11.6642 17.9142 12 17.5 12C17.0858 12 16.75 11.6642 16.75 11.25V10.25C16.75 9.83579 17.0858 9.5 17.5 9.5Z"
    fill="currentColor"
  />
</svg>

<svg xmlns="http://www.w3.org/2000/svg" width="20" height="20" fill="none" data-fui-icon="true" viewBox="0 0 20 20"><path fill="currentColor" d="M5.5 4.5a.75.75 0 0 1 .75.75v11a.75.75 0 0 1-1.5 0v-11a.75.75 0 0 1 .75-.75m6 2.5a.75.75 0 0 1 .75.75v6a.75.75 0 0 1-1.5 0v-6A.75.75 0 0 1 11.5 7m-3 .5a.75.75 0 0 1 .75.75v5a.75.75 0 0 1-1.5 0v-5a.75.75 0 0 1 .75-.75m-6 .5a.75.75 0 0 1 .75.75v4a.75.75 0 0 1-1.5 0v-4A.75.75 0 0 1 2.5 8m12 0a.75.75 0 0 1 .75.75v4a.75.75 0 0 1-1.5 0v-4A.75.75 0 0 1 14.5 8m3 1.5a.75.75 0 0 1 .75.75v1a.75.75 0 0 1-1.5 0v-1a.75.75 0 0 1 .75-.75"/></svg>
